;FLAVOR:Marlin
;TIME:5036
;Filament used: 2.86384m
;Layer height: 0.2
;MINX:125.1
;MINY:143.706
;MINZ:0.2
;MAXX:223.899
;MAXY:205.294
;MAXZ:13.2
;Generated with Cura_SteamEngine 4.13.1
M140 S70
M105
M190 S70
M104 S200
M105
M109 S200
M82 ;absolute extrusion mode
M201 X500.00 Y500.00 Z100.00 E5000.00 ;Setup machine max acceleration
M203 X500.00 Y500.00 Z10.00 E50.00 ;Setup machine max feedrate
M204 P500.00 R1000.00 T500.00 ;Setup Print/Retract/Travel acceleration
M205 X8.00 Y8.00 Z0.40 E5.00 ;Setup Jerk
M220 S100 ;Reset Feedrate
M221 S100 ;Reset Flowrate

G28 ;Home
M420 S1 Z2 ;Enable ABL using saved Mesh and Fade Height

G92 E0 ;Reset Extruder
G1 Z2.0 F3000 ;Move Z Axis up
G1 X10.1 Y20 Z0.28 F5000.0 ;Move to start position
G1 X10.1 Y200.0 Z0.28 F1500.0 E15 ;Draw the first line
G1 X10.4 Y200.0 Z0.28 F5000.0 ;Move to side a little
G1 X10.4 Y20 Z0.28 F1500.0 E30 ;Draw the second line
G92 E0 ;Reset Extruder
G1 Z2.0 F3000 ;Move Z Axis up

G92 E0
G92 E0
G1 F1500 E-6.5
;LAYER_COUNT:65
;LAYER:0
M107
G1 F300 Z0.4
G0 F6000 X129.135 Y146.304 Z0.4
;TYPE:SKIRT
G1 F300 Z0.2
G1 F1500 E0
G1 F1200 X129.877 Y145.73 E0.0312
G1 X130.666 Y145.223 E0.06239
G1 X131.494 Y144.784 E0.09357
G1 X132.358 Y144.417 E0.12479
G1 X133.249 Y144.125 E0.15597
G1 X134.162 Y143.911 E0.18716
G1 X135.09 Y143.774 E0.21836
G1 X135.848 Y143.722 E0.24363
G1 X136.234 Y143.712 E0.25648
G1 X136.777 Y143.706 E0.27454
G1 X167.033 Y143.707 E1.28086
G1 X167.735 Y143.717 E1.30421
G1 X168.671 Y143.77 E1.33539
G1 X169.587 Y143.901 E1.36616
G1 X170.329 Y144.039 E1.39127
G1 X172.843 Y144.469 E1.4761
G1 X175.338 Y144.824 E1.55992
G1 X177.871 Y145.112 E1.64471
G1 X180.332 Y145.321 E1.72685
G1 X182.869 Y145.464 E1.81137
G1 X185.402 Y145.536 E1.89565
G1 X187.871 Y145.536 E1.97777
G1 X191.102 Y145.434 E2.08529
G1 X192.195 Y145.382 E2.12168
G1 X193.641 Y145.332 E2.16981
G1 X194.334 Y145.318 E2.19286
G1 X195.253 Y145.338 E2.22343
G1 X195.627 Y145.366 E2.23591
G1 X196.399 Y145.438 E2.26169
G1 X197.626 Y145.567 E2.30273
G1 X198.501 Y145.671 E2.33204
G1 X199.695 Y145.881 E2.37236
G1 X200.55 Y146.081 E2.40156
G1 X201.865 Y146.411 E2.44666
G1 X202.585 Y146.601 E2.47143
G1 X203.754 Y146.981 E2.51231
G1 X204.494 Y147.269 E2.53872
G1 X205.867 Y147.824 E2.58798
G1 X206.493 Y148.087 E2.61056
G1 X207.584 Y148.618 E2.65092
G1 X208.283 Y149.009 E2.67755
G1 X209.557 Y149.745 E2.72649
G1 X210.181 Y150.118 E2.75067
G1 X211.203 Y150.81 E2.79172
G1 X211.806 Y151.27 E2.81695
G1 X212.917 Y152.138 E2.86384
G1 X213.477 Y152.587 E2.88771
G1 X214.053 Y153.082 E2.91297
G1 X214.421 Y153.436 E2.92996
G1 X215.031 Y154.05 E2.95874
G1 X215.881 Y154.929 E2.99941
G1 X216.48 Y155.567 E3.02852
G1 X217.253 Y156.486 E3.06846
G1 X217.636 Y156.996 E3.08967
G1 X218.502 Y158.187 E3.13865
G1 X218.61 Y158.338 E3.14483
G1 X219.036 Y158.946 E3.16952
G1 X219.671 Y159.967 E3.20951
G1 X220.029 Y160.621 E3.23431
G1 X220.728 Y161.939 E3.28393
G1 X221.035 Y162.535 E3.30622
G1 X221.533 Y163.649 E3.34681
G1 X221.788 Y164.317 E3.37059
G1 X222.322 Y165.785 E3.42255
G1 X222.561 Y166.474 E3.4468
G1 X222.896 Y167.648 E3.48741
G1 X223.076 Y168.446 E3.51462
G1 X223.361 Y169.792 E3.56038
G1 X223.506 Y170.523 E3.58517
G1 X223.677 Y171.735 E3.62588
G1 X223.749 Y172.603 E3.65485
G1 X223.843 Y173.958 E3.70002
G1 X223.884 Y174.694 E3.72454
G1 X223.899 Y175.54 E3.75268
G1 X223.882 Y175.978 E3.76726
G1 X223.838 Y176.734 E3.79245
G1 X223.737 Y178.167 E3.84023
G1 X223.676 Y178.88 E3.86403
G1 X223.576 Y179.69 E3.89117
G1 X223.491 Y180.172 E3.90745
G1 X223.35 Y180.878 E3.9314
G1 X223.054 Y182.267 E3.97863
G1 X222.879 Y183.03 E4.00467
G1 X222.544 Y184.193 E4.04492
G1 X222.283 Y184.937 E4.07115
G1 X221.777 Y186.326 E4.12032
G1 X221.531 Y186.969 E4.14321
G1 X221.043 Y188.06 E4.18297
G1 X220.656 Y188.813 E4.21112
G1 X219.993 Y190.057 E4.25801
G1 X219.65 Y190.681 E4.28169
G1 X218.996 Y191.726 E4.32269
G1 X218.505 Y192.419 E4.35094
G1 X217.654 Y193.588 E4.39904
G1 X217.253 Y194.123 E4.42127
G1 X216.476 Y195.049 E4.46148
G1 X215.914 Y195.647 E4.48877
G1 X214.896 Y196.699 E4.53746
G1 X214.426 Y197.172 E4.55964
G1 X213.537 Y197.974 E4.59946
G1 X212.878 Y198.505 E4.62761
G1 X211.749 Y199.386 E4.67524
G1 X211.191 Y199.811 E4.69857
G1 X210.151 Y200.513 E4.7403
G1 X209.42 Y200.947 E4.76858
G1 X208.189 Y201.657 E4.81585
G1 X207.583 Y201.995 E4.83892
G1 X206.467 Y202.537 E4.88019
G1 X205.676 Y202.867 E4.90869
G1 X204.428 Y203.368 E4.95342
G1 X203.748 Y203.632 E4.97768
G1 X202.605 Y204.006 E5.01768
G1 X201.862 Y204.203 E5.04325
G1 X200.445 Y204.556 E5.09182
G1 X199.711 Y204.729 E5.1169
G1 X198.471 Y204.947 E5.15878
G1 X197.678 Y205.039 E5.18533
G1 X196.275 Y205.186 E5.23225
G1 X195.521 Y205.253 E5.25743
G1 X194.338 Y205.294 E5.2968
G1 X193.527 Y205.277 E5.32378
G1 X192.08 Y205.225 E5.37193
G1 X191.384 Y205.191 E5.39511
G1 X190.836 Y205.15 E5.41339
G1 X190.114 Y205.057 E5.4376
G1 X189.349 Y204.932 E5.46338
G1 X187.956 Y204.685 E5.51044
G1 X187.242 Y204.549 E5.53461
G1 X186.056 Y204.254 E5.57526
G1 X185.273 Y204.011 E5.60253
G1 X183.879 Y203.556 E5.6513
G1 X183.212 Y203.328 E5.67474
G1 X182.639 Y203.114 E5.69509
G1 X181.968 Y202.842 E5.71917
G1 X179.576 Y201.912 E5.80453
G1 X177.197 Y201.063 E5.88854
G1 X174.777 Y200.278 E5.97316
G1 X172.4 Y199.579 E6.05557
G1 X169.938 Y198.93 E6.14025
G1 X167.478 Y198.354 E6.22429
G1 X165.023 Y197.857 E6.3076
G1 X162.526 Y197.42 E6.39191
G1 X160.081 Y197.065 E6.47408
G1 X157.566 Y196.771 E6.5583
G1 X155.022 Y196.547 E6.64324
G1 X152.561 Y196.4 E6.72524
G1 X149.996 Y196.32 E6.81059
G1 X148.395 Y196.306 E6.86385
G1 X143.807 Y196.306 E7.01644
G1 X142.95 Y196.295 E7.04495
G1 X142.014 Y196.242 E7.07613
G1 X141.085 Y196.109 E7.10734
G1 X140.171 Y195.897 E7.13855
G1 X139.279 Y195.608 E7.16974
G1 X138.415 Y195.245 E7.20091
G1 X137.584 Y194.809 E7.23212
G1 X136.794 Y194.304 E7.26331
G1 X136.049 Y193.733 E7.29453
G1 X135.356 Y193.102 E7.3257
G1 X134.72 Y192.413 E7.35688
G1 X134.144 Y191.673 E7.38807
G1 X133.633 Y190.886 E7.41928
G1 X133.09 Y189.841 E7.45845
G1 X132.713 Y189.01 E7.4888
G1 X131.623 Y186.692 E7.574
G1 X130.475 Y184.423 E7.65858
G1 X129.277 Y182.209 E7.7423
G1 X128.022 Y180.04 E7.82565
G1 X127.4 Y179.038 E7.86488
G1 X126.703 Y177.888 E7.9096
G1 X126.251 Y177.065 E7.94083
G1 X125.872 Y176.208 E7.972
G1 X125.566 Y175.321 E8.00321
G1 X125.338 Y174.412 E8.03438
G1 X125.187 Y173.486 E8.06558
G1 X125.116 Y172.552 E8.09674
G1 X125.106 Y172.17 E8.10945
G1 X125.1 Y171.627 E8.12751
G1 X125.101 Y155.349 E8.66892
G1 X125.111 Y154.667 E8.6916
G1 X125.165 Y153.73 E8.72282
G1 X125.298 Y152.802 E8.754
G1 X125.51 Y151.888 E8.78521
G1 X125.799 Y150.996 E8.81639
G1 X126.163 Y150.132 E8.84757
G1 X126.599 Y149.302 E8.87876
G1 X127.104 Y148.511 E8.90997
G1 X127.675 Y147.767 E8.94116
G1 X128.332 Y147.05 E8.97351
G1 X128.444 Y146.938 E8.97878
G1 X129.135 Y146.304 E9.00997
G0 F6000 X129.405 Y146.599
G1 F1200 X130.135 Y146.038 E9.04059
G1 X130.911 Y145.542 E9.07122
G1 X131.727 Y145.116 E9.10184
G1 X132.577 Y144.762 E9.13246
G1 X133.455 Y144.484 E9.16309
G1 X134.353 Y144.282 E9.19371
G1 X135.266 Y144.159 E9.22435
G1 X135.862 Y144.122 E9.24421
G1 X136.238 Y144.112 E9.25672
G1 X136.777 Y144.106 E9.27465
G1 X167.027 Y144.107 E10.28077
G1 X167.729 Y144.117 E10.30412
G1 X168.648 Y144.17 E10.33474
G1 X169.514 Y144.294 E10.36383
G1 X170.254 Y144.431 E10.38886
G1 X172.791 Y144.866 E10.47448
G1 X175.308 Y145.224 E10.55903
G1 X177.79 Y145.506 E10.64212
G1 X180.346 Y145.724 E10.72744
G1 X182.836 Y145.864 E10.81039
G1 X185.391 Y145.936 E10.8954
G1 X187.883 Y145.936 E10.97828
G1 X191.075 Y145.835 E11.0845
G1 X192.067 Y145.787 E11.11754
G1 X193.649 Y145.732 E11.17019
G1 X194.342 Y145.718 E11.19324
G1 X195.228 Y145.737 E11.22271
G1 X195.591 Y145.765 E11.23482
G1 X196.357 Y145.836 E11.26041
G1 X197.733 Y145.982 E11.30643
G1 X198.453 Y146.068 E11.33055
G1 X199.604 Y146.27 E11.36942
G1 X200.453 Y146.469 E11.39842
G1 X201.763 Y146.798 E11.44335
G1 X202.483 Y146.988 E11.46811
G1 X203.61 Y147.354 E11.50752
G1 X204.345 Y147.64 E11.53376
G1 X205.712 Y148.192 E11.58279
G1 X206.338 Y148.455 E11.60537
G1 X207.39 Y148.967 E11.64429
G1 X208.083 Y149.355 E11.6707
G1 X209.352 Y150.089 E11.71946
G1 X209.976 Y150.462 E11.74364
G1 X210.961 Y151.128 E11.78319
G1 X211.56 Y151.585 E11.80825
G1 X212.667 Y152.45 E11.85497
G1 X213.227 Y152.899 E11.87885
G1 X213.783 Y153.377 E11.90323
G1 X214.138 Y153.718 E11.91961
G1 X214.743 Y154.328 E11.94818
G1 X215.704 Y155.324 E11.99421
G1 X216.188 Y155.84 E12.01774
G1 X216.933 Y156.727 E12.05627
G1 X217.417 Y157.374 E12.08315
G1 X218.282 Y158.567 E12.13216
G1 X218.708 Y159.175 E12.15685
G1 X219.32 Y160.16 E12.19542
G1 X219.675 Y160.809 E12.22002
G1 X220.372 Y162.122 E12.26947
G1 X220.679 Y162.718 E12.29176
G1 X221.159 Y163.792 E12.33089
G1 X221.473 Y164.619 E12.36031
G1 X221.944 Y165.916 E12.40621
G1 X222.183 Y166.605 E12.43046
G1 X222.506 Y167.736 E12.46958
G1 X222.684 Y168.529 E12.49662
G1 X222.968 Y169.87 E12.54221
G1 X223.113 Y170.601 E12.56699
G1 X223.278 Y171.769 E12.60623
G1 X223.35 Y172.631 E12.635
G1 X223.444 Y173.98 E12.67997
G1 X223.485 Y174.716 E12.70449
G1 X223.499 Y175.531 E12.7316
G1 X223.483 Y175.955 E12.74572
G1 X223.439 Y176.706 E12.77074
G1 X223.338 Y178.133 E12.81832
G1 X223.277 Y178.846 E12.84212
G1 X223.181 Y179.626 E12.86826
G1 X223.099 Y180.094 E12.88406
G1 X222.959 Y180.795 E12.90784
G1 X222.664 Y182.178 E12.95487
G1 X222.489 Y182.941 E12.98091
G1 X222.166 Y184.061 E13.01968
G1 X221.907 Y184.8 E13.04572
G1 X221.403 Y186.183 E13.09468
G1 X221.157 Y186.826 E13.11758
G1 X220.688 Y187.878 E13.15589
G1 X220.303 Y188.625 E13.18384
G1 X219.642 Y189.864 E13.23054
G1 X219.299 Y190.488 E13.25423
G1 X218.669 Y191.495 E13.29373
G1 X218.182 Y192.184 E13.3218
G1 X217.334 Y193.348 E13.3697
G1 X216.933 Y193.883 E13.39193
G1 X216.185 Y194.775 E13.43065
G1 X215.626 Y195.37 E13.45781
G1 X214.717 Y196.311 E13.50132
G1 X214.142 Y196.89 E13.52846
G1 X213.286 Y197.663 E13.56682
G1 X212.632 Y198.19 E13.59476
G1 X211.507 Y199.068 E13.64222
G1 X210.949 Y199.493 E13.66555
G1 X209.947 Y200.169 E13.70575
G1 X209.22 Y200.601 E13.73388
G1 X208.135 Y201.228 E13.77556
G1 X207.388 Y201.645 E13.80402
G1 X206.312 Y202.168 E13.84381
G1 X205.526 Y202.496 E13.87213
G1 X204.283 Y202.995 E13.91668
G1 X203.603 Y203.259 E13.94095
G1 X202.502 Y203.619 E13.97947
G1 X201.765 Y203.815 E14.00484
G1 X200.493 Y204.133 E14.04845
G1 X199.62 Y204.339 E14.07828
G1 X198.425 Y204.55 E14.11864
G1 X197.636 Y204.642 E14.14506
G1 X196.413 Y204.771 E14.18596
G1 X195.485 Y204.854 E14.21695
G1 X194.345 Y204.894 E14.25489
G1 X193.541 Y204.877 E14.28164
G1 X192.1 Y204.825 E14.3296
G1 X191.404 Y204.791 E14.35278
G1 X190.874 Y204.752 E14.37045
G1 X190.178 Y204.663 E14.39379
G1 X189.419 Y204.538 E14.41937
G1 X188.031 Y204.292 E14.46626
G1 X187.317 Y204.156 E14.49043
G1 X186.174 Y203.871 E14.52961
G1 X185.397 Y203.63 E14.55667
G1 X184.008 Y203.177 E14.60526
G1 X183.341 Y202.949 E14.62871
G1 X182.789 Y202.743 E14.6483
G1 X182.114 Y202.47 E14.67252
G1 X179.707 Y201.534 E14.75842
G1 X177.319 Y200.682 E14.84275
G1 X174.941 Y199.91 E14.9259
G1 X172.477 Y199.185 E15.01133
G1 X170.026 Y198.539 E15.09564
G1 X167.576 Y197.966 E15.17932
G1 X165.106 Y197.465 E15.26315
G1 X162.615 Y197.03 E15.34725
G1 X160.113 Y196.666 E15.43134
G1 X157.576 Y196.37 E15.5163
G1 X155.081 Y196.15 E15.5996
G1 X152.563 Y196 E15.6835
G1 X150.011 Y195.92 E15.76842
G1 X148.399 Y195.906 E15.82204
G1 X143.807 Y195.906 E15.97477
G1 X142.956 Y195.895 E16.00308
G1 X142.036 Y195.842 E16.03373
G1 X141.125 Y195.709 E16.06435
G1 X140.229 Y195.498 E16.09497
G1 X139.355 Y195.21 E16.12557
G1 X138.509 Y194.847 E16.15619
G1 X137.697 Y194.412 E16.18683
G1 X136.927 Y193.908 E16.21744
G1 X136.203 Y193.339 E16.24807
G1 X135.531 Y192.71 E16.27868
G1 X134.916 Y192.024 E16.30932
G1 X134.363 Y191.288 E16.33994
G1 X133.876 Y190.507 E16.37055
G1 X133.454 Y189.676 E16.40155
G1 X133.068 Y188.824 E16.43266
G1 X131.977 Y186.506 E16.51787
G1 X130.827 Y184.231 E16.60266
G1 X129.64 Y182.039 E16.68557
G1 X128.37 Y179.844 E16.76991
G1 X127.742 Y178.83 E16.80958
G1 X127.045 Y177.68 E16.85431
G1 X126.602 Y176.873 E16.88493
G1 X126.232 Y176.03 E16.91555
G1 X125.935 Y175.159 E16.94616
G1 X125.716 Y174.264 E16.9768
G1 X125.575 Y173.355 E17.0074
G1 X125.516 Y172.539 E17.03461
G1 X125.506 Y172.166 E17.04702
G1 X125.5 Y171.627 E17.06495
G1 X125.501 Y155.355 E17.60616
G1 X125.511 Y154.673 E17.62884
G1 X125.565 Y153.753 E17.65949
G1 X125.698 Y152.843 E17.69008
G1 X125.909 Y151.946 E17.72073
G1 X126.198 Y151.072 E17.75135
G1 X126.561 Y150.226 E17.78197
G1 X126.996 Y149.415 E17.81258
G1 X127.5 Y148.645 E17.84318
G1 X128.069 Y147.921 E17.87381
G1 X128.615 Y147.333 E17.9005
G1 X128.727 Y147.221 E17.90577
G1 X129.405 Y146.599 E17.93637
G0 F6000 X129.676 Y146.894
G1 F1200 X130.393 Y146.345 E17.96641
G1 X131.157 Y145.863 E17.99645
G1 X131.96 Y145.449 E18.0265
G1 X132.796 Y145.109 E18.05652
G1 X133.659 Y144.843 E18.08655
G1 X134.542 Y144.655 E18.11658
G1 X135.875 Y144.522 E18.16113
G1 X136.243 Y144.512 E18.17338
G1 X136.777 Y144.506 E18.19114
G1 X167.021 Y144.507 E19.19706
G1 X167.723 Y144.517 E19.22041
G1 X168.625 Y144.57 E19.25046
G1 X169.441 Y144.688 E19.27789
G1 X170.122 Y144.815 E19.30093
G1 X172.738 Y145.262 E19.3892
G1 X175.238 Y145.618 E19.47319
G1 X177.783 Y145.907 E19.55838
G1 X180.291 Y146.121 E19.6421
G1 X182.836 Y146.264 E19.72688
G1 X185.38 Y146.336 E19.81152
G1 X187.896 Y146.336 E19.89521
G1 X191.105 Y146.235 E20.00199
G1 X192.223 Y146.181 E20.03922
G1 X193.657 Y146.132 E20.08694
G1 X194.35 Y146.118 E20.11
G1 X195.202 Y146.136 E20.13834
G1 X195.554 Y146.163 E20.15008
G1 X196.315 Y146.234 E20.1755
G1 X197.686 Y146.379 E20.22136
G1 X198.406 Y146.465 E20.24548
G1 X199.513 Y146.66 E20.28286
G1 X200.356 Y146.858 E20.31166
G1 X201.661 Y147.185 E20.35641
G1 X202.381 Y147.375 E20.38118
G1 X203.465 Y147.727 E20.41908
G1 X204.195 Y148.011 E20.44514
G1 X205.557 Y148.561 E20.49399
G1 X206.183 Y148.824 E20.51657
G1 X207.195 Y149.317 E20.55401
G1 X207.884 Y149.702 E20.58027
G1 X209.146 Y150.432 E20.62876
G1 X209.77 Y150.805 E20.65294
G1 X210.719 Y151.447 E20.69104
G1 X211.314 Y151.901 E20.71594
G1 X212.417 Y152.762 E20.76248
G1 X212.977 Y153.211 E20.78635
G1 X213.512 Y153.672 E20.80984
G1 X213.854 Y154 E20.8256
G1 X214.455 Y154.606 E20.85399
G1 X215.305 Y155.485 E20.89466
G1 X215.896 Y156.114 E20.92336
G1 X216.613 Y156.967 E20.96042
G1 X217.094 Y157.609 E20.98711
G1 X217.955 Y158.797 E21.03591
G1 X218.381 Y159.405 E21.0606
G1 X218.97 Y160.352 E21.09769
G1 X219.322 Y160.996 E21.1221
G1 X220.017 Y162.305 E21.17139
G1 X220.324 Y162.901 E21.19369
G1 X220.785 Y163.934 E21.23132
G1 X221.097 Y164.756 E21.26056
G1 X221.566 Y166.047 E21.30624
G1 X221.805 Y166.736 E21.3305
G1 X222.116 Y167.824 E21.36814
G1 X222.293 Y168.612 E21.395
G1 X222.576 Y169.947 E21.44039
G1 X222.721 Y170.678 E21.46517
G1 X222.88 Y171.803 E21.50296
G1 X222.951 Y172.659 E21.53153
G1 X223.044 Y174.003 E21.57634
G1 X223.085 Y174.739 E21.60086
G1 X223.099 Y175.523 E21.62694
G1 X223.084 Y175.933 E21.64058
G1 X223.04 Y176.678 E21.6654
G1 X222.94 Y178.098 E21.71275
G1 X222.879 Y178.811 E21.73655
G1 X222.786 Y179.563 E21.76175
G1 X222.707 Y180.016 E21.77705
G1 X222.568 Y180.712 E21.80065
G1 X222.31 Y181.927 E21.84197
G1 X222.099 Y182.851 E21.87349
G1 X221.788 Y183.929 E21.91081
G1 X221.531 Y184.664 E21.9367
G1 X221.03 Y186.04 E21.98541
G1 X220.784 Y186.683 E22.00831
G1 X220.332 Y187.695 E22.04517
G1 X219.95 Y188.437 E22.07293
G1 X219.292 Y189.671 E22.11944
G1 X218.949 Y190.295 E22.14313
G1 X218.343 Y191.265 E22.18117
G1 X217.942 Y191.833 E22.20429
G1 X217.014 Y193.109 E22.25677
G1 X216.613 Y193.644 E22.27901
G1 X215.893 Y194.502 E22.31626
G1 X215.338 Y195.092 E22.3432
G1 X214.328 Y196.136 E22.39152
G1 X213.858 Y196.609 E22.41369
G1 X213.034 Y197.352 E22.4506
G1 X212.386 Y197.875 E22.47829
G1 X211.363 Y198.674 E22.52147
G1 X210.706 Y199.174 E22.54893
G1 X209.742 Y199.825 E22.58761
G1 X209.02 Y200.254 E22.61555
G1 X207.8 Y200.958 E22.6624
G1 X207.194 Y201.296 E22.68548
G1 X206.158 Y201.799 E22.72378
G1 X205.377 Y202.125 E22.75193
G1 X204.139 Y202.623 E22.79631
G1 X203.459 Y202.887 E22.82057
